X: 31219
T: Paddy Fahey's
R: jig
M: 6/8
K: Gmajor
|:DGA B2G|cBA BGE|DGB dcB|cBc AGE|
DGA B2G|cBA BGE|DGB dcB|cAF G3:|
|:gdB GDB,|G,B,D GBd|cBc Aag|faf def|
gdB GDB,|G,B,D GBd|cBc Adc|BGF G3:|

